Catalina-dark/actions/16/svn-update.svg

<?xml version="1.0" encoding="UTF-8" standalone="no"?>
<svg
   xmlns:dc="http://purl.org/dc/elements/1.1/"
   xmlns:cc="http://creativecommons.org/ns#"
   xmlns:rdf="http://www.w3.org/1999/02/22-rdf-syntax-ns#"
   xmlns:svg="http://www.w3.org/2000/svg"
   xmlns="http://www.w3.org/2000/svg"
   xmlns:sodipodi="http://sodipodi.sourceforge.net/DTD/sodipodi-0.dtd"
   xmlns:inkscape="http://www.inkscape.org/namespaces/inkscape"
   width="16"
   height="16"
   viewBox="0 0 16 16"
   version="1.1"
   id="svg7"
   sodipodi:docname="rabbitvcs-update.svg"
   inkscape:version="0.92.4 5da689c313, 2019-01-14">
  <metadata
     id="metadata11">
    <rdf:RDF>
      <cc:Work
         rdf:about="">
        <dc:format>image/svg+xml</dc:format>
        <dc:type
           rdf:resource="http://purl.org/dc/dcmitype/StillImage" />
      </cc:Work>
    </rdf:RDF>
  </metadata>
  <sodipodi:namedview
     pagecolor="#ffffff"
     bordercolor="#666666"
     borderopacity="1"
     objecttolerance="10"
     gridtolerance="10"
     guidetolerance="10"
     inkscape:pageopacity="0"
     inkscape:pageshadow="2"
     inkscape:window-width="640"
     inkscape:window-height="480"
     id="namedview9"
     showgrid="false"
     inkscape:zoom="14.75"
     inkscape:cx="6.8135593"
     inkscape:cy="8"
     inkscape:window-x="0"
     inkscape:window-y="26"
     inkscape:window-maximized="0"
     inkscape:current-layer="svg7" />
  <defs
     id="defs3">
    <style
       id="current-color-scheme"
       type="text/css">
   .ColorScheme-Text { color:#5c616c; } .ColorScheme-Highlight { color:#5294e2; }
  </style>
  </defs>
  <path
     style="fill:#f1f6f8;fill-opacity:0.8509804"
     class="ColorScheme-Text"
     d="M 3.5 1 C 2.1193 1 1 2.1193 1 3.5 C 1.00013 4.6879 1.83612 5.7116187 3 5.9492188 L 3 9.953125 C 1.8368 10.190545 1.0011 11.213191 1 12.400391 C 1 13.781091 2.1193 14.900391 3.5 14.900391 C 4.8807 14.900391 6 13.781091 6 12.400391 C 5.99987 11.212491 5.16388 10.188772 4 9.9511719 L 4 5.9453125 C 4.38986 5.8671125 4.7554563 5.6970387 5.0664062 5.4492188 L 6.2792969 6.3574219 C 6.0966469 6.7106519 6.0009 7.10233 6 7.5 C 6 8.8807 7.1193 10 8.5 10 C 9.06529 10 9.5812 9.8046412 10 9.4882812 L 10 12 L 8 12 L 11.28125 14.8125 L 11.5 15 L 11.71875 14.8125 L 15 12 L 13 12 L 13 9 L 10.488281 9 C 10.804641 8.58123 11 8.06529 11 7.5 C 11 6.1193 9.8807 5 8.5 5 C 7.90804 5.001 7.3356656 5.2121731 6.8847656 5.5957031 L 5.6914062 4.703125 C 5.8938362 4.334425 5.99998 3.92059 6 3.5 C 6 2.1193 4.8807 1 3.5 1 z"
     id="path5" />
</svg>

<svg width="16" height="16" version="1.1" viewBox="0 0 16 16" xmlns="http://www.w3.org/2000/svg">
<defs>
<style id="current-color-scheme" type="text/css">.ColorScheme-Text { color:#5c616c; } .ColorScheme-Highlight { color:#5294e2; }</style>
</defs>
<path class="ColorScheme-Text" d="m3.5 1c-1.3807 0-2.5 1.1193-2.5 2.5 1.3e-4 1.1879 0.83612 2.2116 2 2.4492v4.0039c-1.1632 0.23742-1.9989 1.2601-2 2.4473 0 1.3807 1.1193 2.5 2.5 2.5s2.5-1.1193 2.5-2.5c-1.3e-4 -1.1879-0.83612-2.2116-2-2.4492v-4.0059c0.38986-0.0782 0.75546-0.24827 1.0664-0.49609l1.2129 0.9082c-0.18265 0.35323-0.2784 0.74491-0.2793 1.1426 0 1.3807 1.1193 2.5 2.5 2.5 0.56529 0 1.0812-0.19536 1.5-0.51172v2.5117h-2l3.5 3 3.5-3h-2v-3h-2.5117c0.31636-0.41877 0.51172-0.93471 0.51172-1.5 0-1.3807-1.1193-2.5-2.5-2.5-0.59196 1e-3 -1.1643 0.21217-1.6152 0.5957l-1.1934-0.89258c0.20243-0.3687 0.30857-0.78254 0.30859-1.2031 0-1.3807-1.1193-2.5-2.5-2.5z" fill="#f1f6f8" fill-opacity=".85098"/>
</svg>
